ibt/assets/img/icons/adv-4-ico.svg

<svg width="70" height="70" viewBox="0 0 70 70" fill="none" xmlns="http://www.w3.org/2000/svg">
<path fill-rule="evenodd" clip-rule="evenodd" d="M0 35C0 15.7002 15.7015 0 35 0C54.2985 0 70 15.7002 70 35C70 54.2998 54.2985 70 35 70C15.7015 70 0 54.2998 0 35ZM2.69231 35C2.69231 52.8137 17.1863 67.3077 35 67.3077C52.8137 67.3077 67.3077 52.8137 67.3077 35C67.3077 17.1863 52.8137 2.69231 35 2.69231C17.1863 2.69231 2.69231 17.1863 2.69231 35ZM30.8047 43.9196L51.4937 20.6446C51.9891 20.0873 52.8385 20.0375 53.3958 20.5329C53.9518 21.0256 54.0016 21.8777 53.5076 22.4323L31.9691 46.6631C31.7039 46.9619 31.3337 47.1154 30.9622 47.1154C30.666 47.1154 30.3685 47.0184 30.1208 46.8206L16.6593 36.0513C16.0791 35.5869 15.9849 34.7402 16.4493 34.1586C16.9124 33.5798 17.7618 33.4842 18.3407 33.9486L30.8047 43.9196Z" fill="white"/>
</svg>

<svg width="70" height="70" fill="none" xmlns="http://www.w3.org/2000/svg"><path fill-rule="evenodd" clip-rule="evenodd" d="M0 35C0 15.7 15.701 0 35 0c19.298 0 35 15.7 35 35S54.298 70 35 70C15.701 70 0 54.3 0 35zm2.692 0c0 17.814 14.494 32.308 32.308 32.308S67.308 52.814 67.308 35 52.814 2.692 35 2.692 2.692 17.186 2.692 35zm28.113 8.92l20.689-23.275a1.345 1.345 0 011.902-.112c.556.493.606 1.345.112 1.9l-21.539 24.23a1.344 1.344 0 01-1.848.158L16.659 36.05a1.347 1.347 0 011.682-2.102l12.464 9.97z" fill="#fff"/></svg>
